assets/icons/qvision/calculate.svg

<svg xmlns="http://www.w3.org/2000/svg" enable-background="new 0 0 24 24" height="24" viewBox="0 0 24 24" width="24"><g><rect fill="none" height="24" width="24"/></g><g><path d="M19,3H5C3.9,3,3,3.9,3,5v14c0,1.1,0.9,2,2,2h14c1.1,0,2-0.9,2-2V5C21,3.9,20.1,3,19,3z M13.03,7.06L14.09,6l1.41,1.41 L16.91,6l1.06,1.06l-1.41,1.41l1.41,1.41l-1.06,1.06L15.5,9.54l-1.41,1.41l-1.06-1.06l1.41-1.41L13.03,7.06z M6.25,7.72h5v1.5h-5 V7.72z M11.5,16h-2v2H8v-2H6v-1.5h2v-2h1.5v2h2V16z M18,17.25h-5v-1.5h5V17.25z M18,14.75h-5v-1.5h5V14.75z"/></g></svg>

<svg width="24" height="24" viewBox="0 0 24 24" fill="none" xmlns="http://www.w3.org/2000/svg">
<g clip-path="url(#clip0_147_2102)">
<path d="M19 3H5C3.9 3 3 3.9 3 5V19C3 20.1 3.9 21 5 21H19C20.1 21 21 20.1 21 19V5C21 3.9 20.1 3 19 3ZM13.03 7.06L14.09 6L15.5 7.41L16.91 6L17.97 7.06L16.56 8.47L17.97 9.88L16.91 10.94L15.5 9.54L14.09 10.95L13.03 9.89L14.44 8.48L13.03 7.06ZM6.25 7.72H11.25V9.22H6.25V7.72ZM11.5 16H9.5V18H8V16H6V14.5H8V12.5H9.5V14.5H11.5V16ZM18 17.25H13V15.75H18V17.25ZM18 14.75H13V13.25H18V14.75Z" fill="#323232"/>
</g>
<defs>
<clipPath id="clip0_147_2102">
<rect width="24" height="24" fill="white"/>
</clipPath>
</defs>
</svg>
